symbolic/22x22/apps/qtlinguist.svg

<svg xmlns="http://www.w3.org/2000/svg" width="22" height="22" version="1.1">
 <path style="opacity:0.2" d="M 4.3720706,3.4998988 C 4.1809057,3.5001107 3.9981409,3.5798421 3.8662113,3.7196253 L 1.1933596,6.548727 C 1.1155956,6.631193 1.0623642,6.73128 1.0312502,6.8387655 c -0.01853,0.064011 -0.031265,0.129431 -0.03125,0.1972665 -4.8e-7,3.24e-4 0,6.5e-4 0,0.001 v 10.812499 c 0,0.707289 0.4532227,1.255777 0.8535157,1.458008 0.4002929,0.20223 0.7792969,0.192383 0.7792969,0.192383 H 18.626954 c 0.191165,-2.12e-4 0.374906,-0.07994 0.506836,-0.219727 l 2.672851,-2.829101 c 0.03477,-0.03687 0.06401,-0.07726 0.08984,-0.120118 0.026,-0.04313 0.04619,-0.08914 0.0625,-0.136718 C 21.9843,16.120407 22.000015,16.043346 22,15.963789 V 5.1502895 C 22,4.4430005 21.545801,3.8945119 21.145508,3.6922816 20.745216,3.4900509 20.366212,3.4998988 20.366212,3.4998988 Z"/>
 <path style="fill:#4cdb5d" d="M 4.3723964,3.000052 C 4.1812315,3.0002639 3.9984666,3.0794547 3.8665369,3.2192379 L 1.1932293,6.048393 C 1.0691537,6.1799705 0.99996112,6.354754 1.0000002,6.536495 l 2.0577934,5.383909 c 0.2525178,0.660675 -1.0786557,5.283652 -0.6783628,5.485883 0.400293,0.20223 2.1205694,-0.906311 2.1205694,-0.906311 l 12.9999998,0.5 c 0.191165,-2.13e-4 0.868071,-0.360217 1,-0.5 l 3.306771,-0.5485 C 21.930847,15.819898 22.00004,15.645113 22,15.463372 V 4.6503925 C 22,3.9431033 21.546257,3.3947606 21.145964,3.1925303 20.745671,2.9902996 20.366667,3.000052 20.366667,3.000052 Z"/>
 <path style="fill:#31ae3e" d="m 1.0307622,6.3391135 c -0.018411,0.06382 -0.030776,0.129996 -0.030761,0.197609 V 17.349165 c 0,0.707289 0.4535778,1.256401 0.8538707,1.458632 0.4002929,0.20223 0.7792969,0.192095 0.7792969,0.192095 H 18.627397 c 0.191166,-2.13e-4 0.374241,-0.07989 0.506171,-0.219668 l 2.673472,-2.82903 c 0.06964,-0.07385 0.119421,-0.161772 0.151944,-0.256432 z"/>
 <path style="opacity:0.1" d="m 1.0312502,6.3388435 c -0.018411,0.063821 -0.031265,0.130629 -0.03125,0.1982425 v 0.5 c -1.458e-5,-0.067614 0.012839,-0.1344215 0.03125,-0.1982425 L 21.69043,16.074195 21.806641,15.951148 c 0.06964,-0.07385 0.11982,-0.162176 0.152344,-0.256836 z"/>
 <path style="opacity:0.2" d="M 9,6.5000005 V 15.5 H 9.056641 10 14 v -1 H 10 V 6.5000005 Z"/>
 <path style="fill:#ffffff" d="M 9,6.0000005 V 15 H 9.056641 10 14 V 14 H 10 V 6.0000005 Z"/>
 <path style="opacity:0.2;fill:#ffffff" d="M 4.3720705,2.9999765 C 4.1809056,3.0001884 3.9981408,3.0799198 3.8662111,3.219703 L 1.1933596,6.0488045 C 1.0692839,6.180382 0.99996102,6.3543685 1.0000002,6.5361095 l 0.073242,0.191406 c 0.031254,-0.064796 0.070041,-0.125607 0.1201174,-0.178711 L 3.8662111,3.719703 C 3.9981408,3.5799198 4.1809056,3.5001884 4.3720705,3.4999765 H 20.366211 c 0,0 0.379004,-0.00985 0.779297,0.1923828 C 21.545802,3.8945895 22,4.443078 22,5.150367 v -0.5 C 22,3.9430779 21.545802,3.3945895 21.145508,3.1923593 20.745215,2.9901286 20.366211,2.9999765 20.366211,2.9999765 Z"/>
</svg>

<svg xmlns="http://www.w3.org/2000/svg" width="22" height="22"><path style="opacity:.2" d="M4.372 3.5a.697.697 0 0 0-.506.22L1.193 6.549a.705.705 0 0 0-.162.29.707.707 0 0 0-.031.197V17.85c0 .707.453 1.255.854 1.458.4.202.779.192.779.192h15.994a.7.7 0 0 0 .507-.22l2.673-2.829a.7.7 0 0 0 .152-.257.709.709 0 0 0 .041-.23V5.15c0-.707-.454-1.255-.854-1.458-.4-.202-.78-.192-.78-.192z"/><path style="fill:#4cdb5d" d="M4.372 3a.697.697 0 0 0-.505.22L1.193 6.047A.711.711 0 0 0 1 6.536l2.058 5.384c.252.661-1.079 5.284-.679 5.486.4.203 2.121-.906 2.121-.906l13 .5c.191 0 .868-.36 1-.5l3.307-.549a.711.711 0 0 0 .193-.488V4.65c0-.707-.454-1.255-.854-1.457-.4-.203-.78-.193-.78-.193z"/><path style="fill:#31ae3e" d="M1.03 6.34a.713.713 0 0 0-.03.197v10.812c0 .707.454 1.257.854 1.459.4.202.78.192.78.192h15.993c.192 0 .375-.08.507-.22l2.673-2.829a.704.704 0 0 0 .152-.256z"/><path style="opacity:.1" d="M1.031 6.339A.718.718 0 0 0 1 6.537v.5c0-.068.013-.134.031-.198l20.66 9.235.116-.123a.707.707 0 0 0 .152-.257z"/><path style="opacity:.2" d="M9 6.5v9h5v-1h-4v-8z"/><path style="fill:#fff" d="M9 6v9h5v-1h-4V6z"/><path style="opacity:.2;fill:#fff" d="M4.372 3a.697.697 0 0 0-.506.22L1.193 6.049A.71.71 0 0 0 1 6.536l.073.192a.702.702 0 0 1 .12-.18L3.866 3.72a.697.697 0 0 1 .506-.22h15.994s.38-.01.78.192c.4.203.854.751.854 1.458v-.5c0-.707-.454-1.255-.854-1.458-.4-.202-.78-.192-.78-.192z"/></svg>
